;FLAVOR:Marlin
;TIME:561
;Filament used: 0.952283m
;Layer height: 0.32
;MINX:89.065
;MINY:91.375
;MINZ:0.32
;MAXX:145.935
;MAXY:143.625
;MAXZ:8
;Generated with Cura_SteamEngine 4.12.0
M140 S60
M105
M190 S60
M104 S210
M105
M109 S210
M82 ;absolute extrusion mode
; Ender 3 Custom Start G-code
G92 E0 ; Reset Extruder
G28 ; Home all axes
G1 Z2.0 F3000 ; Move Z Axis up little to prevent scratching of Heat Bed
G1 X0.1 Y20 Z0.3 F5000.0 ; Move to start position
G1 X0.1 Y200.0 Z0.3 F1500.0 E15 ; Draw the first line
G1 X0.4 Y200.0 Z0.3 F5000.0 ; Move to side a little
G1 X0.4 Y20 Z0.3 F1500.0 E30 ; Draw the second line
G92 E0 ; Reset Extruder
G1 Z2.0 F3000 ; Move Z Axis up little to prevent scratching of Heat Bed
G1 X5 Y20 Z0.3 F5000.0 ; Move over to prevent blob squish
G92 E0
G92 E0
G1 F1500 E-6.5
;LAYER_COUNT:25
;LAYER:0
M107
G0 F9000 X101.03 Y94.593 Z0.32
;TYPE:SKIRT
G1 F1500 E0
G1 F3300 X101.729 Y93.959 E0.05763
G1 X102.479 Y93.387 E0.11523
G1 X103.275 Y92.881 E0.17282
G1 X104.11 Y92.443 E0.2304
G1 X104.98 Y92.078 E0.28802
G1 X105.878 Y91.788 E0.34564
G1 X106.796 Y91.575 E0.40319
G1 X107.73 Y91.441 E0.46081
G1 X108.685 Y91.386 E0.51922
G1 X109.536 Y91.375 E0.57119
G1 X125.453 Y91.375 E1.54318
G1 X126.313 Y91.386 E1.5957
G1 X127.254 Y91.44 E1.65325
G1 X128.188 Y91.573 E1.71086
G1 X129.107 Y91.784 E1.76844
G1 X130.005 Y92.073 E1.82605
G1 X130.875 Y92.437 E1.88364
G1 X131.712 Y92.873 E1.94127
G1 X132.508 Y93.378 E1.99884
G1 X133.259 Y93.949 E2.05645
G1 X133.958 Y94.582 E2.11403
G1 X134.602 Y95.271 E2.17162
G1 X135.185 Y96.013 E2.22925
G1 X135.705 Y96.805 E2.2871
G1 X136.144 Y97.543 E2.33954
G1 X144.199 Y111.495 E3.32333
G1 X144.521 Y112.071 E3.36362
G1 X144.946 Y112.914 E3.42127
G1 X145.298 Y113.789 E3.47887
G1 X145.574 Y114.69 E3.53641
G1 X145.774 Y115.612 E3.59402
G1 X145.894 Y116.548 E3.65165
G1 X145.935 Y117.49 E3.70923
G1 X145.896 Y118.432 E3.7668
G1 X145.777 Y119.368 E3.82442
G1 X145.579 Y120.29 E3.882
G1 X145.304 Y121.192 E3.93959
G1 X144.954 Y122.068 E3.99719
G1 X144.52 Y122.93 E4.05613
G1 X144.104 Y123.671 E4.10802
G1 X136.088 Y137.552 E5.08686
G1 X135.708 Y138.189 E5.13215
G1 X135.191 Y138.978 E5.18976
G1 X134.609 Y139.72 E5.24734
G1 X133.966 Y140.411 E5.30498
G1 X133.267 Y141.044 E5.36257
G1 X132.517 Y141.616 E5.42017
G1 X131.721 Y142.122 E5.47776
G1 X130.885 Y142.559 E5.53537
G1 X130.015 Y142.923 E5.59296
G1 X129.118 Y143.213 E5.65053
G1 X128.199 Y143.425 E5.70812
G1 X127.265 Y143.559 E5.76574
G1 X126.315 Y143.614 E5.82385
G1 X125.464 Y143.625 E5.87582
G1 X109.388 Y143.624 E6.85751
G1 X108.687 Y143.614 E6.90032
G1 X107.746 Y143.56 E6.95788
G1 X106.812 Y143.427 E7.01549
G1 X105.893 Y143.216 E7.07307
G1 X104.995 Y142.927 E7.13067
G1 X104.125 Y142.563 E7.18826
G1 X103.288 Y142.127 E7.2459
G1 X102.492 Y141.622 E7.30346
G1 X101.741 Y141.051 E7.36107
G1 X101.042 Y140.418 E7.41866
G1 X100.398 Y139.729 E7.47625
G1 X99.815 Y138.987 E7.53387
G1 X99.291 Y138.188 E7.59222
G1 X98.827 Y137.408 E7.64764
G1 X90.805 Y123.512 E8.62746
G1 X90.483 Y122.937 E8.6677
G1 X90.058 Y122.095 E8.7253
G1 X89.705 Y121.22 E8.78291
G1 X89.428 Y120.319 E8.84048
G1 X89.228 Y119.397 E8.89809
G1 X89.107 Y118.462 E8.95566
G1 X89.065 Y117.519 E9.0133
G1 X89.103 Y116.577 E9.07087
G1 X89.222 Y115.641 E9.12849
G1 X89.419 Y114.719 E9.18606
G1 X89.693 Y113.816 E9.24369
G1 X90.043 Y112.941 E9.30124
G1 X90.476 Y112.078 E9.3602
G1 X90.896 Y111.329 E9.41264
G1 X98.935 Y97.409 E10.39424
G1 X99.289 Y96.815 E10.43647
G1 X99.806 Y96.026 E10.49407
G1 X100.388 Y95.283 E10.5517
G1 X101.03 Y94.593 E10.60926
G0 F9000 X101.387 Y94.873
G1 F3300 X102.075 Y94.257 E10.66565
G1 X102.814 Y93.702 E10.72208
G1 X103.598 Y93.214 E10.77848
G1 X104.422 Y92.795 E10.83493
G1 X105.278 Y92.449 E10.89131
G1 X106.162 Y92.178 E10.94777
G1 X107.065 Y91.985 E11.00416
G1 X107.982 Y91.87 E11.06059
G1 X108.691 Y91.836 E11.10394
G1 X109.536 Y91.825 E11.15554
G1 X125.453 Y91.825 E12.12752
G1 X126.306 Y91.836 E12.17962
G1 X127.229 Y91.889 E12.23607
G1 X128.143 Y92.022 E12.29248
G1 X129.042 Y92.233 E12.34887
G1 X129.92 Y92.521 E12.40529
G1 X130.77 Y92.884 E12.46173
G1 X131.585 Y93.32 E12.51818
G1 X132.359 Y93.824 E12.57458
G1 X133.087 Y94.393 E12.631
G1 X133.763 Y95.023 E12.68743
G1 X134.382 Y95.709 E12.74385
G1 X134.939 Y96.445 E12.80022
G1 X135.319 Y97.036 E12.84312
G1 X135.755 Y97.768 E12.89515
G1 X143.806 Y111.715 E13.87855
G1 X144.128 Y112.291 E13.91885
G1 X144.543 Y113.116 E13.97524
G1 X144.886 Y113.974 E14.03167
G1 X145.153 Y114.859 E14.08812
G1 X145.343 Y115.763 E14.14452
G1 X145.453 Y116.68 E14.20092
G1 X145.484 Y117.604 E14.25738
G1 X145.436 Y118.526 E14.31376
G1 X145.307 Y119.441 E14.37019
G1 X145.1 Y120.342 E14.42664
G1 X144.816 Y121.221 E14.48305
G1 X144.456 Y122.072 E14.53947
G1 X144.127 Y122.71 E14.58331
G1 X143.715 Y123.446 E14.63482
G1 X135.702 Y137.322 E15.6133
G1 X135.322 Y137.959 E15.65859
G1 X134.814 Y138.731 E15.71503
G1 X134.242 Y139.457 E15.77147
G1 X133.61 Y140.13 E15.82784
G1 X132.921 Y140.746 E15.88428
G1 X132.182 Y141.3 E15.94068
G1 X131.398 Y141.788 E15.99707
G1 X130.574 Y142.207 E16.05352
G1 X129.717 Y142.553 E16.10996
G1 X128.834 Y142.823 E16.16635
G1 X127.93 Y143.016 E16.22279
G1 X127.013 Y143.13 E16.27922
G1 X126.309 Y143.164 E16.32226
G1 X125.464 Y143.175 E16.37387
G1 X109.395 Y143.174 E17.35513
G1 X108.694 Y143.164 E17.39794
G1 X107.771 Y143.111 E17.4544
G1 X106.857 Y142.978 E17.5108
G1 X105.958 Y142.767 E17.56719
G1 X105.08 Y142.479 E17.62362
G1 X104.23 Y142.116 E17.68006
G1 X103.415 Y141.68 E17.7365
G1 X102.641 Y141.176 E17.7929
G1 X101.913 Y140.607 E17.84933
G1 X101.237 Y139.977 E17.90575
G1 X100.618 Y139.291 E17.96218
G1 X100.061 Y138.555 E18.01854
G1 X99.677 Y137.957 E18.06194
G1 X99.217 Y137.183 E18.11692
G1 X91.198 Y123.292 E19.09638
G1 X90.876 Y122.717 E19.13662
G1 X90.46 Y121.892 E19.19305
G1 X90.117 Y121.034 E19.24947
G1 X89.849 Y120.15 E19.30588
G1 X89.659 Y119.246 E19.36229
G1 X89.547 Y118.329 E19.4187
G1 X89.515 Y117.405 E19.47516
G1 X89.564 Y116.483 E19.53154
G1 X89.692 Y115.568 E19.58796
G1 X89.898 Y114.667 E19.6444
G1 X90.182 Y113.788 E19.70081
G1 X90.54 Y112.936 E19.75725
G1 X90.869 Y112.297 E19.80113
G1 X91.209 Y111.688 E19.84373
G1 X99.322 Y97.639 E20.83441
G1 X99.676 Y97.045 E20.87664
G1 X100.183 Y96.273 E20.93304
G1 X100.755 Y95.547 E20.98948
G1 X101.387 Y94.873 E21.0459
G0 F9000 X101.743 Y95.155
G1 F3300 X102.42 Y94.556 E21.1011
G1 X103.148 Y94.02 E21.15631
G1 X103.921 Y93.549 E21.21158
G1 X104.732 Y93.149 E21.2668
G1 X105.575 Y92.822 E21.32202
G1 X106.443 Y92.571 E21.3772
G1 X107.331 Y92.398 E21.43244
G1 X108.23 Y92.304 E21.48764
G1 X108.698 Y92.286 E21.51624
G1 X109.536 Y92.275 E21.56742
G1 X125.453 Y92.275 E22.5394
G1 X126.3 Y92.286 E22.59112
G1 X127.203 Y92.339 E22.64636
G1 X128.097 Y92.471 E22.70155
G1 X128.976 Y92.682 E22.75675
G1 X129.833 Y92.97 E22.81196
G1 X130.662 Y93.332 E22.8672
G1 X131.455 Y93.766 E22.9224
G1 X132.207 Y94.269 E22.97765
G1 X132.911 Y94.836 E23.03285
G1 X133.563 Y95.463 E23.08808
G1 X134.156 Y96.145 E23.14327
G1 X134.687 Y96.877 E23.19849
G1 X134.932 Y97.267 E23.22662
G1 X135.365 Y97.993 E23.27824
G1 X143.413 Y111.935 E24.26128
G1 X143.735 Y112.511 E24.30158
G1 X144.141 Y113.319 E24.3568
G1 X144.474 Y114.159 E24.41198
G1 X144.731 Y115.026 E24.4672
G1 X144.911 Y115.912 E24.52241
G1 X145.012 Y116.811 E24.57765
G1 X145.033 Y117.715 E24.63287
G1 X144.974 Y118.617 E24.68807
G1 X144.835 Y119.511 E24.74332
G1 X144.619 Y120.389 E24.79853
G1 X144.325 Y121.244 E24.85374
G1 X143.957 Y122.07 E24.90896
G1 X143.734 Y122.491 E24.93805
G1 X143.325 Y123.221 E24.98915
G1 X135.389 Y136.966 E25.95835
G1 X134.935 Y137.728 E26.01252
G1 X134.438 Y138.484 E26.06777
G1 X133.876 Y139.192 E26.12297
G1 X133.254 Y139.848 E26.17817
G1 X132.576 Y140.447 E26.23342
G1 X131.848 Y140.983 E26.28862
G1 X131.075 Y141.453 E26.34387
G1 X130.264 Y141.852 E26.39906
G1 X129.421 Y142.179 E26.45428
G1 X128.552 Y142.43 E26.50951
G1 X127.665 Y142.603 E26.5647
G1 X126.766 Y142.697 E26.61989
G1 X126.302 Y142.714 E26.64825
G1 X125.464 Y142.725 E26.69942
G1 X109.401 Y142.724 E27.68032
G1 X108.7 Y142.714 E27.72313
G1 X107.797 Y142.661 E27.77837
G1 X106.903 Y142.529 E27.83355
G1 X106.024 Y142.318 E27.88876
G1 X105.167 Y142.03 E27.94397
G1 X104.338 Y141.668 E27.9992
G1 X103.545 Y141.234 E28.05441
G1 X102.793 Y140.731 E28.10966
G1 X102.089 Y140.164 E28.16485
G1 X101.437 Y139.537 E28.22009
G1 X100.844 Y138.855 E28.27528
G1 X100.313 Y138.123 E28.3305
G1 X100.064 Y137.727 E28.35907
G1 X99.607 Y136.958 E28.41369
G1 X91.591 Y123.072 E29.3928
G1 X91.269 Y122.497 E29.43304
G1 X90.862 Y121.689 E29.48829
G1 X90.529 Y120.849 E29.54347
G1 X90.271 Y119.982 E29.59871
G1 X90.09 Y119.096 E29.65393
G1 X89.989 Y118.198 E29.70911
G1 X89.967 Y117.294 E29.76433
G1 X90.025 Y116.391 E29.81958
G1 X90.163 Y115.498 E29.87476
G1 X90.379 Y114.62 E29.92998
G1 X90.672 Y113.764 E29.98523
G1 X91.04 Y112.938 E30.04045
G1 X91.262 Y112.517 E30.06951
G1 X91.675 Y111.779 E30.12115
G1 X99.709 Y97.869 E31.10208
G1 X100.063 Y97.275 E31.1443
G1 X100.559 Y96.52 E31.19947
G1 X101.121 Y95.811 E31.25471
G1 X101.743 Y95.155 E31.30992
G1 F1500 E24.80992
;MESH:bolt.stl
G0 F9000 X111.26 Y112.342
G0 X109.904 Y111.554
G0 X108.639 Y114.852
G0 X108.336 Y116.27
G0 X108.255 Y117.673
G0 X108.445 Y119.658
G0 X108.785 Y121.059
G0 X109.336 Y122.392
G0 X109.964 Y123.461
G0 X111.022 Y124.753
G0 X111.952 Y125.596
G0 X113.335 Y126.514
G0 X114.492 Y127.057
G0 X115.387 Y127.324
G0 X117.668 Y127.922
;TYPE:WALL-INNER
G1 F1500 E31.30992
G1 F3300 X118.067 Y127.934 E31.33429
G1 X118.342 Y127.934 E31.35109
G1 X118.792 Y127.916 E31.37859
G1 X119.034 Y127.903 E31.39339
G1 X119.744 Y127.821 E31.43703
G1 X119.946 Y127.785 E31.44956
G1 X120.473 Y127.683 E31.48234
G1 X120.623 Y127.652 E31.49169
G1 X121.328 Y127.458 E31.53635
G1 X121.792 Y127.293 E31.56642
G1 X122.042 Y127.2 E31.58271
G1 X122.375 Y127.05 E31.60501
G1 X122.762 Y126.867 E31.63115
G1 X123.056 Y126.702 E31.65174
G1 X123.498 Y126.443 E31.68302
G1 X123.859 Y126.204 E31.70946
G1 X124.206 Y125.948 E31.73579
G1 X124.558 Y125.655 E31.76376
G1 X124.854 Y125.404 E31.78746
G1 X125.459 Y124.799 E31.83971
G1 X126.011 Y124.147 E31.89187
G1 X126.505 Y123.449 E31.94409
G1 X126.937 Y122.715 E31.9961
G1 X127.302 Y121.948 E32.04797
G1 X127.598 Y121.151 E32.09989
G1 X127.68 Y120.846 E32.11918
G1 X127.815 Y120.32 E32.15234
G1 X127.953 Y119.478 E32.20444
G1 X128.019 Y118.707 E32.25169
G1 X128.023 Y118.617 E32.2572
G1 X128.026 Y117.893 E32.30141
G1 X128.023 Y117.775 E32.30862
G1 X127.972 Y117.087 E32.35074
G1 X127.956 Y116.941 E32.35971
G1 X127.858 Y116.29 E32.39991
G1 X127.825 Y116.12 E32.41049
G1 X127.727 Y115.682 E32.4379
G1 X127.564 Y115.092 E32.47528
G1 X127.422 Y114.676 E32.50212
G1 X127.361 Y114.504 E32.51326
G1 X127.197 Y114.101 E32.53983
G1 X127.119 Y113.926 E32.55153
G1 X126.937 Y113.536 E32.57781
G1 X126.642 Y112.991 E32.61566
G1 X126.421 Y112.631 E32.64145
G1 X126.307 Y112.453 E32.65436
G1 X126.069 Y112.114 E32.67965
G1 X125.69 Y111.622 E32.71758
G1 X125.424 Y111.317 E32.74229
G1 X125.269 Y111.145 E32.75643
G1 X124.991 Y110.861 E32.7807
G1 X124.531 Y110.436 E32.81894
G1 X124.035 Y110.032 E32.85801
G1 X123.734 Y109.816 E32.88063
G1 X123.501 Y109.657 E32.89786
G1 X123.201 Y109.467 E32.91954
G1 X122.648 Y109.151 E32.95844
G1 X122.347 Y109.003 E32.97892
G1 X122.053 Y108.865 E32.99875
G1 X121.761 Y108.745 E33.01803
G1 X121.425 Y108.617 E33.03998
G1 X121.148 Y108.52 E33.05791
G1 X120.514 Y108.337 E33.0982
G1 X120.262 Y108.28 E33.11398
G1 X119.838 Y108.193 E33.14041
G1 X119.62 Y108.158 E33.15389
G1 X119.12 Y108.096 E33.18466
G1 X118.95 Y108.079 E33.19509
G1 X118.244 Y108.047 E33.23825
G1 X117.625 Y108.069 E33.27607
G1 X117.538 Y108.066 E33.28139
G1 X116.793 Y108.091 E33.32691
G1 X116.053 Y108.176 E33.3724
G1 X115.323 Y108.32 E33.41783
G1 X114.605 Y108.52 E33.46335
G1 X113.907 Y108.776 E33.50875
G1 X113.206 Y109.098 E33.55585
G1 X112.536 Y109.477 E33.60286
G1 X111.9 Y109.906 E33.64971
G1 X111.301 Y110.387 E33.69662
G1 X110.748 Y110.911 E33.74314
G1 X110.579 Y111.093 E33.75831
G1 X110.234 Y111.482 E33.79006
G1 X110.075 Y111.685 E33.8058
G1 X109.772 Y112.088 E33.83659
G1 X109.621 Y112.317 E33.85334
G1 X109.362 Y112.728 E33.88301
G1 X109.221 Y112.984 E33.90086
G1 X109.007 Y113.395 E33.92915
G1 X108.876 Y113.681 E33.94836
G1 X108.705 Y114.088 E33.97532
G1 X108.589 Y114.406 E33.99599
G1 X108.462 Y114.799 E34.02121
G1 X108.365 Y115.151 E34.04351
G1 X108.278 Y115.519 E34.0666
G1 X108.201 Y115.911 E34.091
G1 X108.152 Y116.246 E34.11167
G1 X108.103 Y116.683 E34.13852
G1 X108.084 Y116.968 E34.15597
G1 X108.067 Y117.458 E34.18591
G1 X108.069 Y117.678 E34.19934
G1 X108.094 Y118.237 E34.23351
G1 X108.107 Y118.369 E34.24161
G1 X108.17 Y118.866 E34.2722
G1 X108.176 Y118.967 E34.27838
G1 X108.261 Y119.687 E34.32265
G1 X108.407 Y120.408 E34.36758
G1 X108.609 Y121.116 E34.41254
G1 X108.861 Y121.803 E34.45722
G1 X108.926 Y121.951 E34.46709
G1 X109.17 Y122.476 E34.50244
G1 X109.472 Y123.032 E34.54108
G1 X109.811 Y123.566 E34.57971
G1 X110.184 Y124.075 E34.61824
G1 X110.463 Y124.414 E34.64505
G1 X110.598 Y124.569 E34.6576
G1 X110.888 Y124.882 E34.68366
G1 X111.043 Y125.036 E34.697
G1 X111.348 Y125.328 E34.72279
G1 X111.836 Y125.742 E34.76187
G1 X112.354 Y126.125 E34.80121
G1 X112.694 Y126.349 E34.82607
G1 X112.903 Y126.48 E34.84113
G1 X113.246 Y126.677 E34.86529
G1 X113.481 Y126.8 E34.88148
G1 X113.824 Y126.971 E34.90489
G1 X114.424 Y127.229 E34.94477
G1 X115.047 Y127.449 E34.98512
G1 X115.393 Y127.552 E35.00716
G1 X115.699 Y127.633 E35.02649
G1 X116.035 Y127.712 E35.04757
G1 X116.69 Y127.831 E35.08822
G1 X117.367 Y127.905 E35.12981
G1 X117.668 Y127.922 E35.14822
G0 F9000 X117.688 Y127.472
;TYPE:WALL-OUTER
G1 F3300 X118.074 Y127.484 E35.1718
G1 X118.333 Y127.484 E35.18762
G1 X118.77 Y127.467 E35.21432
G1 X118.996 Y127.454 E35.22815
G1 X119.679 Y127.376 E35.27013
G1 X119.863 Y127.343 E35.28154
G1 X120.384 Y127.242 E35.31395
G1 X120.517 Y127.214 E35.32225
G1 X121.193 Y127.028 E35.36506
G1 X121.639 Y126.87 E35.39396
G1 X121.871 Y126.784 E35.40907
G1 X122.186 Y126.641 E35.43019
G1 X122.556 Y126.467 E35.45516
G1 X122.832 Y126.312 E35.47449
G1 X123.26 Y126.061 E35.50479
G1 X123.601 Y125.835 E35.52977
G1 X123.928 Y125.594 E35.55458
G1 X124.268 Y125.311 E35.58159
G1 X124.549 Y125.072 E35.60412
G1 X124.793 Y124.83 E35.6251
G1 X125.127 Y124.494 E35.65403
G1 X125.655 Y123.871 E35.7039
G1 X126.127 Y123.204 E35.7538
G1 X126.539 Y122.504 E35.8034
G1 X126.887 Y121.773 E35.85284
G1 X127.169 Y121.014 E35.90228
G1 X127.245 Y120.732 E35.92012
G1 X127.374 Y120.228 E35.95189
G1 X127.506 Y119.422 E36.00176
G1 X127.57 Y118.678 E36.04736
G1 X127.573 Y118.607 E36.0517
G1 X127.576 Y117.899 E36.09494
G1 X127.573 Y117.798 E36.10111
G1 X127.524 Y117.128 E36.14213
G1 X127.51 Y116.999 E36.15005
G1 X127.414 Y116.367 E36.18909
G1 X127.384 Y116.212 E36.19873
G1 X127.29 Y115.791 E36.22507
G1 X127.134 Y115.225 E36.26092
G1 X126.997 Y114.824 E36.2868
G1 X126.94 Y114.664 E36.29717
G1 X126.783 Y114.277 E36.32268
G1 X126.71 Y114.113 E36.33364
G1 X126.535 Y113.739 E36.35885
G1 X126.252 Y113.216 E36.39517
G1 X126.04 Y112.87 E36.41995
G1 X125.933 Y112.704 E36.43201
G1 X125.706 Y112.38 E36.45616
G1 X125.342 Y111.907 E36.49261
G1 X125.088 Y111.616 E36.5162
G1 X124.941 Y111.454 E36.52956
G1 X124.677 Y111.184 E36.55262
G1 X124.236 Y110.776 E36.5893
G1 X123.762 Y110.39 E36.62663
G1 X123.476 Y110.185 E36.64812
G1 X123.253 Y110.033 E36.6646
G1 X122.969 Y109.852 E36.68517
G1 X122.437 Y109.549 E36.72255
G1 X122.152 Y109.409 E36.74194
G1 X121.871 Y109.277 E36.7609
G1 X121.595 Y109.163 E36.77914
G1 X121.271 Y109.04 E36.8003
G1 X121.011 Y108.949 E36.81712
G1 X120.402 Y108.773 E36.85583
G1 X120.167 Y108.72 E36.87054
G1 X119.756 Y108.636 E36.89616
G1 X119.556 Y108.603 E36.90854
G1 X119.07 Y108.543 E36.93844
G1 X118.918 Y108.528 E36.94777
G1 X118.242 Y108.497 E36.98909
G1 X117.623 Y108.52 E37.02692
G1 X117.535 Y108.516 E37.0323
G1 X116.826 Y108.54 E37.07562
G1 X116.122 Y108.621 E37.11889
G1 X115.427 Y108.758 E37.16215
G1 X114.743 Y108.949 E37.20551
G1 X114.079 Y109.192 E37.24869
G1 X113.411 Y109.499 E37.29359
G1 X112.773 Y109.86 E37.33835
